icons/plexis/48/distributor-logo-bodhi.svg

<svg viewBox="0 0 48 48" xmlns="http://www.w3.org/2000/svg" xmlns:xlink="http://www.w3.org/1999/xlink">
  <linearGradient id="a" gradientTransform="matrix(0 -1 1 0 -.0000015 47.999998)" gradientUnits="userSpaceOnUse" x1="1" x2="47">
    <stop offset="0" stop-color="#c97845"/>
    <stop offset="1" stop-color="#ce8354"/>
  </linearGradient>
  <path d="m47 24c0 22.703-.297 23-23 23-22.703 0-23-.297-23-23 0-22.703.297-23 23-23 22.703 0 23 .297 23 23z" fill="url(#a)"/>
  <circle cx="25" cy="25" opacity=".1" r="14"/>
  <circle cx="24" cy="24" fill="#f0f0f0" r="14"/>
  <path d="m11.481 11a .519.518 0 0 0-.446.705c.598 1.605 1.966 3.125 3.238 4.341l23.849 22.808a.519.518 0 1 0  .717-.749l-23.849-22.807c-1.223-1.17-2.497-2.645-2.983-3.953a.519.518 0 0 0-.527-.344z" fill-rule="evenodd" opacity=".1"/>
  <path d="m13.973 14.25a14 14 0 0 0-.709.77c.333.359.673.705 1.009 1.03l2.166 2.07c-1.843 3.6 2.201 20.396 11.621 11.11l5.348 5.12a14 14 0 0 0  .742-.731l-5.379-5.14c7.987-8.942-7.908-12.792-11.58-11.075l-2.201-2.105c-.343-.328-.685-.683-1.017-1.049z" opacity=".1"/>
  <path d="m15.713 16.713c2.475-2.475 21.336 1.536 11.436 11.436-9.9 9.9-13.911-8.961-11.436-11.436z" fill="#8aad2b"/>
  <path d="m10.481 10a .519.518 0 0 0-.446.705c.598 1.605 1.966 3.125 3.238 4.341l23.849 22.808a.519.518 0 1 0  .717-.749l-23.849-22.807c-1.223-1.17-2.497-2.645-2.983-3.953a.519.518 0 0 0-.527-.344z" fill="#c3d362" fill-rule="evenodd"/>
</svg>

<svg xmlns="http://www.w3.org/2000/svg" viewBox="0 0 48 48">
 <defs>
  <linearGradient id="linearGradient3764" x1="1" x2="47" gradientUnits="userSpaceOnUse" gradientTransform="matrix(0,-1,1,0,-1.5e-6,47.999998)">
   <stop style="stop-color:#c97845;stop-opacity:1"/>
   <stop offset="1" style="stop-color:#ce8354;stop-opacity:1"/>
  </linearGradient>
 </defs>
 <g>
  
  
  
 </g>
 <g>
  <path d="m 47,24 C 47,46.703 46.703,47 24,47 1.297,47 1,46.703 1,24 1,1.297 1.297,1 24,1 46.703,1 47,1.297 47,24 z" style="fill:url(#linearGradient3764);fill-opacity:1"/>
 </g>
 <g>
  
 </g>
 <circle r="14" cy="25" cx="25" style="fill:#000;opacity:0.1;fill-opacity:1;stroke:none"/>
 <circle cx="24" cy="24" r="14" style="fill:#f0f0f0;opacity:1;fill-opacity:1;stroke:none"/>
 <path d="m 11.481 11 a 0.519 0.518 0 0 0 -0.446 0.705 c 0.598 1.605 1.966 3.125 3.238 4.341 l 23.849 22.808 a 0.519 0.518 0 1 0 0.717 -0.749 L 14.99 15.298 c -1.223 -1.17 -2.497 -2.645 -2.983 -3.953 a 0.519 0.518 0 0 0 -0.527 -0.344 z" mix-blend-mode="normal" isolation="auto" white-space="normal" solid-opacity="1" solid-color="#000000" style="visibility:visible;shape-rendering:auto;color-interpolation-filters:linearRGB;fill:#000;opacity:0.1;image-rendering:auto;fill-opacity:1;stroke:none;display:inline;color:#000;fill-rule:evenodd;color-rendering:auto;color-interpolation:sRGB"/>
 <path d="M 13.973 14.25 A 14 14 0 0 0 13.264 15.02 C 13.597 15.379 13.937 15.725 14.273 16.05 L 16.439 18.12 C 14.596 21.72 18.64 38.516 28.06 29.23 L 33.408 34.35 A 14 14 0 0 0 34.15 33.619 L 28.771 28.479 C 36.758 19.537 20.863 15.687 17.191 17.404 L 14.99 15.299 C 14.647 14.971 14.305 14.616 13.973 14.25 z" style="fill:#000;opacity:0.1;fill-opacity:1;stroke:none"/>
 <path d="m 15.713 16.713 c 2.475 -2.475 21.336 1.536 11.436 11.436 -9.9 9.9 -13.911 -8.961 -11.436 -11.436 z" style="fill:#8aad2b;opacity:1;fill-opacity:1;stroke:none"/>
 <path d="m 10.481 10 a 0.519 0.518 0 0 0 -0.446 0.705 c 0.598 1.605 1.966 3.125 3.238 4.341 l 23.849 22.808 a 0.519 0.518 0 1 0 0.717 -0.749 L 13.99 14.298 c -1.223 -1.17 -2.497 -2.645 -2.983 -3.953 a 0.519 0.518 0 0 0 -0.527 -0.344 z" mix-blend-mode="normal" isolation="auto" white-space="normal" solid-opacity="1" solid-color="#000000" style="visibility:visible;shape-rendering:auto;color-interpolation-filters:linearRGB;fill:#c3d362;opacity:1;image-rendering:auto;fill-opacity:1;stroke:none;display:inline;color:#000;fill-rule:evenodd;color-rendering:auto;color-interpolation:sRGB"/>
</svg>
